images/AAVE.svg

<svg height="250" viewBox="0 0 250 250" width="250" xmlns="http://www.w3.org/2000/svg" xmlns:xlink="http://www.w3.org/1999/xlink"><linearGradient id="a" gradientUnits="userSpaceOnUse" x1="223.6975" x2="43.2775" y1="58.7975" y2="210.6025"><stop offset="0" stop-color="#b6509e"/><stop offset="1" stop-color="#2ebac6"/></linearGradient><path d="m246.25 125c0 66.964844-54.285156 121.25-121.25 121.25s-121.25-54.285156-121.25-121.25 54.285156-121.25 121.25-121.25 121.25 54.285156 121.25 121.25zm0 0" fill="url(#a)"/><path d="m178.058594 173.304688-41.011719-99.109376c-2.316406-5.121093-5.742187-7.632812-10.277344-7.632812h-3.625c-4.535156 0-7.960937 2.511719-10.28125 7.632812l-17.832031 43.179688h-13.503906c-4.046875.015625-7.324219 3.285156-7.355469 7.332031v.097657c.03125 4.046874 3.308594 7.316406 7.355469 7.332031h7.253906l-17.027344 41.167969c-.320312.90625-.492187 1.855468-.503906 2.8125 0 2.3125.707031 4.117187 2.015625 5.523437s3.125 2.109375 5.441406 2.109375c1.519531-.019531 3-.511719 4.230469-1.40625 1.308594-.902344 2.21875-2.210938 2.921875-3.714844l18.742187-46.492187h13c4.042969-.015625 7.324219-3.285157 7.355469-7.332031v-.203126c-.03125-4.042968-3.3125-7.3125-7.355469-7.328124h-6.953124l14.308593-35.648438 38.996094 97.003906c.703125 1.507813 1.609375 2.8125 2.921875 3.714844 1.230469.894531 2.707031 1.386719 4.230469 1.40625 2.316406 0 4.132812-.703125 5.441406-2.109375s2.015625-3.210937 2.015625-5.523437c.039062-.960938-.132812-1.921876-.503906-2.8125zm0 0" fill="#fff"/></svg>

<svg xmlns="http://www.w3.org/2000/svg" xmlns:xlink="http://www.w3.org/1999/xlink" width="250px" height="250px" viewBox="0 0 250 250" version="1.1">
<defs>
<linearGradient id="linear0" gradientUnits="userSpaceOnUse" x1="0.907" y1="0.227" x2="0.163" y2="0.853" gradientTransform="matrix(242.5,0,0,242.5,3.75,3.75)">
<stop offset="0" style="stop-color:rgb(71.372551%,31.37255%,61.960787%);stop-opacity:1;"/>
<stop offset="1" style="stop-color:rgb(18.039216%,72.941178%,77.64706%);stop-opacity:1;"/>
</linearGradient>
</defs>
<g id="surface1">
<path style=" stroke:none;fill-rule:nonzero;fill:url(#linear0);" d="M 246.25 125 C 246.25 191.964844 191.964844 246.25 125 246.25 C 58.035156 246.25 3.75 191.964844 3.75 125 C 3.75 58.035156 58.035156 3.75 125 3.75 C 191.964844 3.75 246.25 58.035156 246.25 125 Z M 246.25 125 "/>
<path style=" stroke:none;fill-rule:nonzero;fill:rgb(100%,100%,100%);fill-opacity:1;" d="M 178.058594 173.304688 L 137.046875 74.195312 C 134.730469 69.074219 131.304688 66.5625 126.769531 66.5625 L 123.144531 66.5625 C 118.609375 66.5625 115.183594 69.074219 112.863281 74.195312 L 95.03125 117.375 L 81.527344 117.375 C 77.480469 117.390625 74.203125 120.660156 74.171875 124.707031 L 74.171875 124.804688 C 74.203125 128.851562 77.480469 132.121094 81.527344 132.136719 L 88.78125 132.136719 L 71.753906 173.304688 C 71.433594 174.210938 71.261719 175.160156 71.25 176.117188 C 71.25 178.429688 71.957031 180.234375 73.265625 181.640625 C 74.574219 183.046875 76.390625 183.75 78.707031 183.75 C 80.226562 183.730469 81.707031 183.238281 82.9375 182.34375 C 84.246094 181.441406 85.15625 180.132812 85.859375 178.628906 L 104.601562 132.136719 L 117.601562 132.136719 C 121.644531 132.121094 124.925781 128.851562 124.957031 124.804688 L 124.957031 124.601562 C 124.925781 120.558594 121.644531 117.289062 117.601562 117.273438 L 110.648438 117.273438 L 124.957031 81.625 L 163.953125 178.628906 C 164.65625 180.136719 165.5625 181.441406 166.875 182.34375 C 168.105469 183.238281 169.582031 183.730469 171.105469 183.75 C 173.421875 183.75 175.238281 183.046875 176.546875 181.640625 C 177.855469 180.234375 178.5625 178.429688 178.5625 176.117188 C 178.601562 175.15625 178.429688 174.195312 178.058594 173.304688 Z M 178.058594 173.304688 "/>
</g>
</svg>
